public/assets/img/material-icons/power_off.svg

<svg height="24" viewBox="0 0 24 24" width="24" xmlns="http://www.w3.org/2000/svg"><path d="m18 14.49v-5.49c0-1-1.01-2.01-2-2v-4h-2v4h-4v-4h-2v2.48l9.51 9.5zm-1.76 1.77-9.04-9.06-.01.01-3.21-3.21-1.27 1.25 3.36 3.36c-.03.13-.07.26-.07.39v5.48l3.5 3.52v3h5v-3l.48-.48 4.47 4.48 1.26-1.28z"/></svg>

<svg xmlns="http://www.w3.org/2000/svg" width="24" height="24" viewBox="0 0 24 24"><path d="M18 14.49V9c0-1-1.01-2.01-2-2V3h-2v4h-4V3H8v2.48l9.51 9.5.49-.49zm-1.76 1.77L7.2 7.2l-.01.01L3.98 4 2.71 5.25l3.36 3.36C6.04 8.74 6 8.87 6 9v5.48L9.5 18v3h5v-3l.48-.48L19.45 22l1.26-1.28-4.47-4.46z"/></svg>
